Papirus/16x16/mimetypes/application-x-hip.svg

<svg width="16" height="16" version="1.1" xmlns="http://www.w3.org/2000/svg">
 <path d="M 2.8008,1 C 2.3576,1 2,1.3576 2,1.8008 V 15.199 C 2,15.642 2.3576,16 2.8008,16 H 13.199 C 13.642,16 14,15.642 14,15.199 V 6 L 9,1 Z" style="fill:#f36128"/>
 <path d="M 14,6 9,1 V 5.1992 C 9,5.6424 9.358,6 9.801,6 Z" style="fill:#ebb9a1"/>
 <path d="m5.9525173 6.0000014c-1.5851897-0.001002-2.9241322 0.5189664-3.9525173 1.3230692v1.5741149c0.8405659-0.8891159 2.0683671-1.5092962 3.6346409-1.5334927 0.1044171-0.00165 0.2104633-5.172e-4 0.3178764 0.00325 2.4254307 0.085468 4.0394075 2.0572647 4.0418577 4.1052912 0.00304 2.261732-1.368091 3.806421-3.6797114 3.777064-1.5742972-0.01993-3.1082901-1.117928-3.0690823-2.788316 0.031039-1.326343 0.9522816-2.399083 2.4165783-2.434496 1.1835825-0.02859 1.6603764 0.804106 1.6603764 1.319413 0 0.488546-0.2834715 1.118301-0.9799534 1.269854-0.5625201 0.122407-1.3583119-0.47886-0.7573987-1.299102-0.6142538-0.02848-1.1499104 0.36737-1.181767 1.068367-0.061533 1.359379 1.3208607 1.887207 2.2043955 1.742698 1.6200393-0.264856 2.2205216-1.339394 2.2131702-2.798876-0.007904-1.5270913-1.3646974-2.8779682-3.1233256-2.8959658-1.4076647-0.0142833-3.0880325 0.8082863-3.697657 2.6022648v2.748507c0.3256404 0.864333 0.9794002 1.679814 1.9048648 2.216354h5.1059668c1.5184814-0.827937 2.4883514-2.419304 2.4891684-4.535889 8.23e-4 -3.0467772-2.1538406-5.4620567-5.5474827-5.4641089z" style="fill:#e4e4e4"/>
</svg>

<svg xmlns="http://www.w3.org/2000/svg" width="16" height="16" version="1.1">
 <path style="fill:#f36128" d="M 2.8008,1 C 2.3576,1 2,1.3576 2,1.8008 V 15.199 C 2,15.642 2.3576,16 2.8008,16 H 13.199 C 13.642,16 14,15.642 14,15.199 V 6 L 9,1 Z"/>
 <path style="fill:#ebb9a1" d="M 14,6 9,1 V 5.1992 C 9,5.6424 9.358,6 9.801,6 Z"/>
 <path style="fill:#e4e4e4" d="M 5.9525,6 C 4.3673,5.999 3.0284,6.519 2,7.3231 V 8.8972 C 2.8406,8.0081 4.0684,7.3879 5.6346,7.3637 5.7391,7.362 5.8451,7.3632 5.9525,7.3669 8.3779,7.4524 9.9919,9.4242 9.9944,11.472 9.9974,13.734 8.6263,15.279 6.3147,15.249 4.7404,15.229 3.2064,14.131 3.2456,12.461 3.2766,11.135 4.1979,10.062 5.6622,10.026 6.8457,9.9979 7.3225,10.831 7.3225,11.346 7.3225,11.834 7.0391,12.464 6.3426,12.616 5.7801,12.738 4.9843,12.137 5.5852,11.317 4.9709,11.288 4.4353,11.684 4.4034,12.385 4.3419,13.744 5.7243,14.272 6.6078,14.128 8.2279,13.863 8.8283,12.788 8.821,11.329 8.8131,9.8017 7.4563,8.4509 5.6977,8.4329 4.29,8.4186 2.6096,9.2412 2,11.035 V 13.784 C 2.3256,14.648 2.9794,15.463 3.9049,16 H 9.0108 C 10.529,15.172 11.499,13.581 11.5,11.464 11.501,8.4173 9.3462,6.0021 5.9525,6 Z"/>
</svg>
